packages/ui-icons/svg/Solid/text-left.svg

<svg viewBox="0 0 1920 1920" xmlns="http://www.w3.org/2000/svg">
    <path d="M1664 1600v256H0v-256h1664Zm256-384.128V1472H0v-256.128h1920ZM1664 832v256H0V832h1664Zm256-384v256H0V448h1920ZM1664 63.872V320H0V63.872h1664Z" fill-rule="evenodd"/>
</svg>

<svg viewBox="0 0 1920 1920" version="1.1" xmlns="http://www.w3.org/2000/svg">
    <path d="M1664,1600 L1664,1856 L0,1856 L0,1600 L1664,1600 Z M1920,1215.872 L1920,1472 L0,1472 L0,1215.872 L1920,1215.872 Z M1664,832 L1664,1088 L0,1088 L0,832 L1664,832 Z M1920,448 L1920,704 L0,704 L0,448 L1920,448 Z M1664,63.872 L1664,320 L0,320 L0,63.872 L1664,63.872 Z" stroke="none" stroke-width="1" fill-rule="evenodd"/>
</svg>
